X:83
T:Ruth
S:American Veteran Fifer #83
C:J.L. Blatchley, Co.E.2nd N.Y.H.A.
M:2/4
L:1/8
Q:1/8=180
K:D 
%%MIDI program 72
%%MIDI transpose 8
%%MIDI ratio 3 1
A | dd df/g/ | a/b/a/f/ d2 | ee e/f/g/a/ | b/a/f/d/ e>A |
dd de/f/ | g/f/e/d/ a>a | b/a/f/d/ b/a/g/e/ | dfd :|
|: d/f/ | aa a/f/e/d/ | f/e/d/f/ e>f | gg g/b/a/g/ | f/e/d/f/ Ad/f/ |
aa a/f/e/d/ | gg g/b/a/g/ | f/a/g/e/ b/g/e/c/ | dfd :|


